X:163
T:Miss Calderwood's Reel. Ru2.163
%%VWML:RutherfordVol2-2249-p82-0
F:http://www.vwml.org/record/RutherfordVol2/2249/p82
Z:vmp.Ruairidh Greig 2015 www.village-music-project.org.uk
M:C|
L:1/8
R:Reel
Q:1/4=100
K:D
B|ADFD ADFB|ADFA E/E/E GB|ADFD ABde|fdef d/d/d d:|
|:f|defd gefd|f>edf e/e/e (eB)|defd eBdA|(B/A/B/c/) dF D/D/D D:||
W:The first Cu. hey Contrary sides .| Then
W:on their own sides :| Cross over two Cu .|.
W:(le)ad up to the Top Foot it & cast off :|
T:Mc Farland's Reel. Ru2.164
B:RUTHERFORD Complete Collection of 200 Country Dances Vol.2; 1759.
Z:vmp.Ruairidh Greig 2015 www.village-music-project.org.uk
M:C|
L:1/8
R:Reel
Q:1/4=100
K:D
e|fA A/A/A "tr"(e>dBe)|fA A/A/A "tr"e2de|fA A/A/A e>dBg|{a}aefd "tr"e2d:|
|:e|fdfd "tr"e>dBe|fdfd "tr"e2 (de)|fdfd "tr"e>dBg|aefd "tr"e2d:|
W:First & 2d. Cu. foot it all four & right Hands across
W:quite round .| Foot it & Left Hands back again :|
W:Gallop down one Cu. up again & cast off .|.
W:Hands round Six. :|
